;FLAVOR:Marlin
;TIME:1159
;Filament used: 0.468884m
;Layer height: 0.2
;MINX:108.505
;MINY:108.506
;MINZ:0.2
;MAXX:126.497
;MAXY:126.496
;MAXZ:14.92
;Generated with Cura_SteamEngine main
M140 S65
M105
M190 S65
M104 S200
M105
M109 S200
M82 ;absolute extrusion mode
; Ender 3 Custom Start G-code
G92 E0 ; Reset Extruder
G28 ; Home all axes
G1 Z2.0 F3000 ; Move Z Axis up little to prevent scratching of Heat Bed
G1 X0.1 Y20 Z0.3 F5000.0 ; Move to start position
G1 X0.1 Y200.0 Z0.3 F1500.0 E15 ; Draw the first line
G1 X0.4 Y200.0 Z0.3 F5000.0 ; Move to side a little
G1 X0.4 Y20 Z0.3 F1500.0 E30 ; Draw the second line
G92 E0 ; Reset Extruder
G1 Z2.0 F3000 ; Move Z Axis up little to prevent scratching of Heat Bed
G1 X5 Y20 Z0.3 F5000.0 ; Move over to prevent blob squish
G92 E0
G92 E0
G1 F2700 E-5.5
;LAYER_COUNT:84
M117 LYR 0001 of 0083  
;LAYER:0
M107
G0 F6000 X109.169 Y109.331 Z0.2
G0 X108.505 Y111.022
;TYPE:SKIRT
G1 F2700 E0
G1 F1200 X108.545 Y110.69 E0.01112
G1 X108.655 Y110.24 E0.02653
G1 X108.796 Y109.883 E0.0393
G1 X108.935 Y109.637 E0.04869
G1 X109.169 Y109.331 E0.06151
G1 X109.357 Y109.145 E0.0703
G1 X109.741 Y108.875 E0.08592
G1 X110.082 Y108.713 E0.09847
G1 X110.414 Y108.604 E0.11009
G1 X110.776 Y108.533 E0.12236
G1 X111.045 Y108.507 E0.13135
G1 X123.982 Y108.506 E0.56164
G1 X124.267 Y108.535 E0.57117
G1 X124.661 Y108.617 E0.58455
G1 X125.055 Y108.764 E0.59854
G1 X125.356 Y108.931 E0.60999
G1 X125.69 Y109.188 E0.62401
G1 X125.88 Y109.387 E0.63316
G1 X126.12 Y109.73 E0.64708
G1 X126.263 Y110.017 E0.65774
G1 X126.386 Y110.381 E0.67052
G1 X126.473 Y110.842 E0.68613
G1 X126.497 Y111.102 E0.69481
G1 X126.497 Y123.901 E1.12051
G1 X126.473 Y124.157 E1.12906
G1 X126.391 Y124.597 E1.14395
G1 X126.291 Y124.918 E1.15513
G1 X126.178 Y125.168 E1.16425
G1 X125.937 Y125.534 E1.17883
G1 X125.693 Y125.802 E1.19088
G1 X125.319 Y126.093 E1.20665
G1 X125.08 Y126.221 E1.21566
G1 X124.791 Y126.337 E1.22602
G1 X124.396 Y126.446 E1.23965
G1 X124.024 Y126.496 E1.25213
G1 X111.023 Y126.495 E1.68455
G1 X110.691 Y126.455 E1.69567
G1 X110.24 Y126.345 E1.71111
G1 X109.883 Y126.204 E1.72388
G1 X109.637 Y126.065 E1.73327
G1 X109.331 Y125.831 E1.74609
G1 X109.145 Y125.643 E1.75488
G1 X108.875 Y125.259 E1.7705
G1 X108.713 Y124.918 E1.78305
G1 X108.604 Y124.586 E1.79467
G1 X108.533 Y124.224 E1.80694
G1 X108.507 Y123.955 E1.81593
G1 X108.505 Y111.022 E2.24609
G0 F6000 X108.905 Y110.904
G1 F1200 X109.044 Y110.335 E2.26557
G1 X109.144 Y110.08 E2.27468
G1 X109.283 Y109.834 E2.28408
G1 X109.451 Y109.615 E2.29326
G1 X109.639 Y109.429 E2.30205
G1 X109.913 Y109.237 E2.31318
G1 X110.367 Y109.021 E2.3299
G1 X110.95 Y108.907 E2.34966
G1 X124.085 Y108.906 E2.78653
G1 X124.58 Y109.009 E2.80335
G1 X124.861 Y109.114 E2.81333
G1 X125.162 Y109.281 E2.82477
M117 Tot. 0,4811% Brim
G1 X125.4 Y109.464 E2.83476
G1 X125.59 Y109.663 E2.84391
G1 X125.762 Y109.908 E2.85387
G1 X125.905 Y110.195 E2.86453
G1 X125.993 Y110.456 E2.87369
G1 X126.097 Y111.007 E2.89234
G1 X126.097 Y123.993 E3.32426
G1 X125.976 Y124.643 E3.34625
G1 X125.813 Y125.003 E3.35939
G1 X125.641 Y125.264 E3.36979
G1 X125.397 Y125.532 E3.38184
G1 X125.13 Y125.741 E3.39312
G1 X124.794 Y125.921 E3.4058
G1 X124.29 Y126.06 E3.42319
G1 X124.024 Y126.096 E3.43212
G1 X110.901 Y126.095 E3.86859
G1 X110.335 Y125.957 E3.88797
G1 X110.08 Y125.856 E3.89709
G1 X109.834 Y125.717 E3.90649
G1 X109.615 Y125.549 E3.91567
G1 X109.429 Y125.361 E3.92446
G1 X109.237 Y125.087 E3.93559
G1 X109.021 Y124.633 E3.95231
G1 X108.907 Y124.05 E3.97207
G1 X108.905 Y110.904 E4.40931
G0 F6000 X109.305 Y110.95
G1 F1200 X109.451 Y110.351 E4.42982
G1 X109.674 Y109.956 E4.4449
G1 X109.991 Y109.643 E4.45972
G1 X110.495 Y109.403 E4.47829
G1 X110.986 Y109.307 E4.49493
G1 X124.042 Y109.306 E4.92917
G1 X124.59 Y109.42 E4.94779
G1 X125.047 Y109.674 E4.96518
G1 X125.364 Y110.006 E4.98044
G1 X125.585 Y110.449 E4.99691
G1 X125.697 Y111.044 E5.01705
G1 X125.697 Y123.957 E5.44654
G1 X125.592 Y124.522 E5.46565
G1 X125.41 Y124.925 E5.48036
G1 X125.033 Y125.339 E5.49898
G1 X124.644 Y125.547 E5.51365
G1 X124.104 Y125.696 E5.53228
G1 X110.951 Y125.695 E5.96975
G1 X110.351 Y125.549 E5.99029
G1 X109.956 Y125.326 E6.00538
G1 X109.643 Y125.009 E6.0202
G1 X109.403 Y124.505 E6.03876
G1 X109.307 Y124.014 E6.0554
G1 X109.305 Y110.95 E6.48991
G0 F6000 X109.705 Y111.022
G1 F1200 X109.827 Y110.498 E6.50781
G1 X109.995 Y110.202 E6.51913
G1 X110.226 Y109.973 E6.52995
G1 X110.618 Y109.787 E6.54438
G1 X111.045 Y109.707 E6.55883
G1 X124.023 Y109.71 E6.99048
G1 X124.446 Y109.798 E7.00485
G1 X124.801 Y109.995 E7.01835
G1 X125.032 Y110.237 E7.02948
G1 X125.202 Y110.578 E7.04215
G1 X125.294 Y111.065 E7.05863
G1 X125.294 Y123.938 E7.48679
G1 X125.212 Y124.378 E7.50168
G1 X125.071 Y124.703 E7.51346
G1 X124.784 Y125.019 E7.52766
G1 X124.472 Y125.18 E7.53934
G1 X124.052 Y125.296 E7.55383
G1 X111.023 Y125.295 E7.98718
G1 X110.498 Y125.173 E8.0051
G1 X110.202 Y125.005 E8.01642
G1 X109.973 Y124.774 E8.02724
G1 X109.787 Y124.382 E8.04167
G1 X109.707 Y123.955 E8.05612
G1 X109.705 Y111.022 E8.48628
G1 F2700 E2.98628
G0 F6000 X114.645 Y117.115
G1 F2700 E8.48628
G1 F1200 X114.635 Y117.621 E8.50311
G1 X114.644 Y118.114 E8.51951
G1 X114.665 Y118.607 E8.53592
G1 X114.719 Y119.176 E8.55493
G1 X114.806 Y119.62 E8.56998
G1 X114.921 Y119.969 E8.5822
G1 X115.089 Y120.373 E8.59675
G1 X115.312 Y120.818 E8.61331
G1 X115.528 Y121.205 E8.62805
G1 X115.984 Y121.631 E8.6488
G1 X116.224 Y121.815 E8.65886
G1 X116.521 Y121.984 E8.67023
G1 X116.933 Y122.107 E8.68453
G1 X117.356 Y122.171 E8.69876
G1 X117.668 Y122.205 E8.7092
G1 X118.254 Y122.144 E8.72879
G1 X118.652 Y122.064 E8.74229
G1 X118.977 Y121.906 E8.75431
G1 X119.209 Y121.757 E8.76348
G1 X119.434 Y121.587 E8.77286
G1 X119.649 Y121.411 E8.78211
G1 X119.814 Y121.191 E8.79125
M117 LYR 0001 of 0083  
G1 X120.157 Y120.676 E8.81183
G1 X120.31 Y120.241 E8.82717
G1 X120.372 Y119.894 E8.83889
G1 X120.408 Y119.545 E8.85056
G1 X120.426 Y119.258 E8.86013
G1 X120.407 Y118.981 E8.86936
G1 X120.372 Y118.646 E8.88056
G1 X120.3 Y118.238 E8.89434
G1 X120.156 Y117.91 E8.90626
G1 X120.016 Y117.667 E8.91559
G1 X119.844 Y117.415 E8.92573
G1 X119.66 Y117.166 E8.93603
G1 X119.287 Y116.861 E8.95206
G1 X119.043 Y116.691 E8.96195
G1 X118.758 Y116.564 E8.97233
G1 X118.44 Y116.494 E8.98316
G1 X117.961 Y116.431 E8.99922
G1 X117.527 Y116.49 E9.01379
G1 X117.163 Y116.59 E9.02635
G1 X116.841 Y116.817 E9.03945
G1 X116.364 Y117.269 E9.06131
G1 X116.215 Y117.341 E9.06681
G1 X115.829 Y117.163 E9.08095
G1 X115.738 Y117.077 E9.08511
G1 X115.713 Y116.968 E9.08883
G1 X115.764 Y116.2 E9.11443
G1 X115.799 Y115.886 E9.12494
G1 X115.856 Y115.556 E9.13608
G1 X115.943 Y115.225 E9.14746
G1 X116.051 Y114.911 E9.15851
G1 X116.321 Y114.301 E9.18069
G1 X116.686 Y113.915 E9.19836
G1 X117.221 Y113.627 E9.21857
G1 X117.726 Y113.548 E9.23557
G1 X118.099 Y113.59 E9.24806
G1 X118.443 Y113.708 E9.26015
G1 X118.8 Y113.953 E9.27455
G1 X119.083 Y114.363 E9.29112
G1 X119.19 Y114.631 E9.30072
G1 X120.135 Y114.526 E9.33235
G1 X120.025 Y114.183 E9.34433
G1 X119.826 Y113.842 E9.35746
G1 X119.444 Y113.408 E9.37669
G1 X118.974 Y113.104 E9.39531
G1 X118.631 Y112.967 E9.40759
G1 X118.306 Y112.912 E9.41855
G1 X117.854 Y112.875 E9.43364
G1 X117.514 Y112.91 E9.44501
G1 X117.065 Y112.974 E9.46009
G1 X116.704 Y113.079 E9.4726
G1 X116.443 Y113.199 E9.48215
G1 X116.127 Y113.406 E9.49471
G1 X115.783 Y113.71 E9.50998
G1 X115.564 Y113.918 E9.52003
G1 X115.342 Y114.317 E9.53522
G1 X115.111 Y114.767 E9.55204
G1 X114.892 Y115.291 E9.57093
G1 X114.765 Y115.774 E9.58754
G1 X114.674 Y116.433 E9.60967
G1 X114.645 Y117.115 E9.63237
G0 F6000 X115.888 Y119.12
G1 F1200 X115.914 Y118.613 E9.64925
G1 X115.975 Y118.326 E9.65901
G1 X116.104 Y117.976 E9.67142
G1 X116.375 Y117.531 E9.68875
G1 X116.766 Y117.198 E9.70583
G1 X117.146 Y117.021 E9.71977
G1 X117.651 Y116.938 E9.7368
G1 X118.119 Y116.999 E9.75249
G1 X118.624 Y117.239 E9.77109
G1 X118.978 Y117.574 E9.7873
G1 X119.194 Y117.964 E9.80213
G1 X119.369 Y118.433 E9.81878
G1 X119.427 Y118.752 E9.82956
G1 X119.448 Y119.289 E9.84744
G1 X119.43 Y119.791 E9.86414
G1 X119.369 Y120.12 E9.87527
G1 X119.224 Y120.513 E9.8892
G1 X118.997 Y120.936 E9.90517
G1 X118.618 Y121.265 E9.92186
G1 X118.247 Y121.439 E9.93549
G1 X117.753 Y121.519 E9.95214
G1 X117.26 Y121.44 E9.96874
G1 X116.741 Y121.162 E9.98833
G1 X116.409 Y120.831 E10.00392
G1 X116.12 Y120.347 E10.02267
G1 X115.988 Y119.971 E10.03592
G1 X115.916 Y119.636 E10.04732
G1 X115.888 Y119.12 E10.06451
G1 F2700 E4.56451
;MESH:d6.stl
G0 F6000 X116.759 Y119.114
G0 X118.206 Y120.238
;TYPE:WALL-INNER
G1 F2700 E10.06451
G1 F1200 X118.381 Y119.76 E10.08144
G1 X118.396 Y119.31 E10.09641
G1 X118.379 Y118.776 E10.11418
G1 X118.189 Y118.272 E10.1321
G1 X118.027 Y118.12 E10.13949
M117 Tot. 1,9171% Wall Inn
G1 X117.814 Y118.019 E10.14733
G1 X117.67 Y118 E10.15216
G1 X117.459 Y118.034 E10.15927
G1 X117.185 Y118.219 E10.17026
G1 X117.044 Y118.452 E10.17932
G1 X116.956 Y118.766 E10.19017
G1 X116.939 Y119.107 E10.20152
G1 X116.962 Y119.509 E10.21491
G1 X117.065 Y119.879 E10.22769
G1 X117.245 Y120.178 E10.2393
G1 X117.376 Y120.311 E10.24551
G1 X117.602 Y120.431 E10.25402
G1 X117.755 Y120.456 E10.25917
G1 X117.932 Y120.427 E10.26514
G1 X118.206 Y120.238 E10.27621
G0 F6000 X118.052 Y120.813
;TYPE:WALL-OUTER
G1 F1200 X118.26 Y120.715 E10.28386
G1 X118.479 Y120.522 E10.29357
G1 X118.625 Y120.257 E10.30363
G1 X118.78 Y119.835 E10.31858
G1 X118.796 Y119.323 E10.33562
G1 X118.777 Y118.697 E10.35645
G1 X118.609 Y118.252 E10.37227
G1 X118.457 Y117.975 E10.38278
G1 X118.255 Y117.786 E10.39198
G1 X117.928 Y117.631 E10.40402
G1 X117.664 Y117.596 E10.41287
G1 X117.34 Y117.648 E10.42379
G1 X117.119 Y117.751 E10.4319
G1 X116.877 Y117.956 E10.44245
G1 X116.681 Y118.279 E10.45501
G1 X116.558 Y118.714 E10.47005
G1 X116.539 Y119.108 E10.48317
G1 X116.564 Y119.563 E10.49832
G1 X116.619 Y119.81 E10.50674
G1 X116.7 Y120.049 E10.51513
G1 X116.927 Y120.426 E10.52977
G1 X117.136 Y120.636 E10.53962
G1 X117.472 Y120.815 E10.55229
G1 X117.754 Y120.861 E10.56179
G1 X118.052 Y120.813 E10.57183
G0 F6000 X117.837 Y119.971
;TYPE:SKIN
G1 F861.8 X117.946 Y119.674 E10.58648
G1 F858.7 X117.954 Y119.263 E10.60559
G1 F857.1 X117.943 Y118.864 E10.62417
G1 F860.2 X117.811 Y118.518 E10.64136
G1 X117.647 Y118.45 E10.64959
G1 X117.516 Y118.521 E10.65651
G1 X117.393 Y118.834 E10.67211
G1 F855.6 X117.382 Y119.105 E10.68476
G1 X117.398 Y119.445 E10.70064
G1 F861.8 X117.468 Y119.697 E10.71275
G1 X117.611 Y119.935 E10.72561
G1 X117.803 Y119.993 E10.7349
G1 X117.837 Y119.971 E10.73678
G1 F2700 E5.23678
G0 F6000 X118.123 Y120.133
G0 X117.754 Y120.639
G0 X117.958 Y123.034
G0 X117.662 Y123.257
;TYPE:WALL-INNER
G1 F2700 E10.73678
G1 F1200 X117.202 Y123.21 E10.75216
G1 X116.742 Y123.142 E10.76762
G1 X116.106 Y122.957 E10.78965
G1 X115.608 Y122.666 E10.80884
G1 X115.332 Y122.455 E10.82039
G1 X115.007 Y122.166 E10.83486
G1 X114.685 Y121.85 E10.84986
G1 X114.383 Y121.306 E10.87056
G1 X114.138 Y120.819 E10.88869
G1 X114.036 Y120.589 E10.89706
G1 X113.924 Y120.299 E10.9074
G1 X113.802 Y119.933 E10.92023
G1 X113.709 Y119.484 E10.93548
G1 X113.67 Y119.232 E10.94396
G1 X113.616 Y118.666 E10.96287
G1 X113.594 Y118.144 E10.98025
G1 X113.585 Y117.6 E10.99835
G1 X113.595 Y117.07 E11.01598
G1 X113.619 Y116.51 E11.03462
G1 X113.64 Y116.244 E11.04349
G1 X113.714 Y115.703 E11.06166
G1 X113.782 Y115.374 E11.07283
G1 X113.857 Y115.101 E11.08225
G1 X113.937 Y114.858 E11.09076
G1 X114.052 Y114.56 E11.10138
G1 X114.17 Y114.298 E11.11094
G1 X114.408 Y113.833 E11.12831
G1 X114.726 Y113.265 E11.14996
G1 X115.08 Y112.929 E11.16619
G1 X115.455 Y112.595 E11.1829
G1 X115.932 Y112.277 E11.20196
G1 X116.34 Y112.091 E11.21688
G1 X116.869 Y111.94 E11.23518
G1 X117.375 Y111.868 E11.25217
G1 X117.842 Y111.82 E11.26779
G1 X118.469 Y111.873 E11.28872
M117 LYR 0001 of 0083  
G1 X118.925 Y111.95 E11.3041
G1 X119.304 Y112.102 E11.31768
G1 X119.627 Y112.274 E11.32985
G1 X120.132 Y112.6 E11.34984
G1 X120.582 Y113.115 E11.37259
G1 X120.735 Y113.323 E11.38118
G1 X120.934 Y113.663 E11.39428
G1 X121.052 Y113.947 E11.40451
G1 X121.135 Y114.198 E11.4133
G1 X121.286 Y114.815 E11.43443
G1 X121.278 Y115.06 E11.44258
G1 X121.159 Y115.299 E11.45146
G1 X120.99 Y115.442 E11.45883
G1 X120.831 Y115.508 E11.46455
G1 X119.336 Y115.672 E11.51457
G1 X119.602 Y115.8 E11.52439
G1 X119.945 Y116.041 E11.53834
G1 X120.191 Y116.244 E11.54894
G1 X120.468 Y116.49 E11.56127
G1 X120.711 Y116.822 E11.57495
G1 X120.919 Y117.129 E11.58728
G1 X121.076 Y117.401 E11.59773
G1 X121.23 Y117.747 E11.61033
G1 X121.357 Y118.182 E11.6254
G1 X121.417 Y118.537 E11.63737
G1 X121.453 Y118.879 E11.64881
G1 X121.476 Y119.296 E11.6627
G1 X121.451 Y119.672 E11.67523
G1 X121.417 Y120.01 E11.68653
G1 X121.331 Y120.512 E11.70347
G1 X121.18 Y120.938 E11.71851
G1 X120.969 Y121.352 E11.73396
G1 X120.685 Y121.781 E11.75107
G1 X120.412 Y122.148 E11.76629
G1 X120.08 Y122.416 E11.78048
G1 X119.786 Y122.635 E11.79267
G1 X119.456 Y122.842 E11.80563
G1 X119.1 Y123.007 E11.81868
G1 X118.743 Y123.119 E11.83112
G1 X118.388 Y123.187 E11.84314
G1 X118.061 Y123.226 E11.8541
G1 X117.662 Y123.257 E11.86741
G1 F2700 E6.36741
G0 F6000 X117.809 Y123.348
G0 X116.123 Y123.151
G0 X110.957 Y123.151
G0 X110.856 Y124.177
G1 F2700 E11.86741
G1 F1200 X111.13 Y124.245 E11.8768
G1 X123.904 Y124.245 E12.30166
G1 X124.13 Y124.177 E12.30951
G1 X124.198 Y124.078 E12.31351
G1 X124.247 Y123.823 E12.32214
G1 X124.247 Y111.22 E12.74132
G1 X124.247 Y111.177 E12.74275
G1 X124.184 Y110.847 E12.75392
G1 X123.893 Y110.756 E12.76407
G1 X111.128 Y110.757 E13.18863
G1 X110.823 Y110.854 E13.19928
G1 X110.755 Y111.13 E13.20873
G1 X110.758 Y123.877 E13.6327
G1 X110.856 Y124.177 E13.64319
G0 F6000 X110.514 Y124.393
;TYPE:WALL-OUTER
G1 F1200 X110.737 Y124.56 E13.65246
G1 X111.082 Y124.645 E13.66428
G1 X123.958 Y124.645 E14.09254
G1 X124.341 Y124.541 E14.10574
G1 X124.519 Y124.342 E14.11462
G1 X124.584 Y124.199 E14.11984
G1 X124.647 Y123.859 E14.13134
G1 X124.647 Y111.22 E14.55172
G1 X124.647 Y111.14 E14.55438
G1 X124.581 Y110.792 E14.56616
G1 X124.398 Y110.516 E14.57717
G1 X124.215 Y110.415 E14.58412
G1 X123.935 Y110.356 E14.59364
G1 X111.089 Y110.357 E15.0209
G1 X110.828 Y110.409 E15.02975
G1 X110.607 Y110.514 E15.03789
G1 X110.44 Y110.737 E15.04716
G1 X110.355 Y111.082 E15.05898
G1 X110.358 Y123.915 E15.4858
G1 X110.407 Y124.17 E15.49444
G1 X110.514 Y124.393 E15.50267
G1 F2700 E10.00267
G0 F6000 X110.877 Y123.963
G0 X110.556 Y115.202
G0 X113.544 Y115.628
G0 X114.853 Y113.368
G0 X115.587 Y112.696
G0 X116.397 Y112.242
G0 X117.407 Y112.027
G0 X117.84 Y111.982
G0 X118.873 Y112.105
G0 X119.524 Y112.4
G0 X120.029 Y112.726
G0 X120.619 Y113.438
G0 X120.987 Y114.267
G0 X121.221 Y115.288
M117 Tot. 3,3532% Wall Out
G0 X118.486 Y115.593
G0 X117.333 Y115.2
G1 F2700 E15.50267
G0 F6000 X117.077 Y115.426
;TYPE:WALL-INNER
G1 F812.2 X117.328 Y115.361 E15.51541
G1 X117.592 Y115.32 E15.52854
G1 X117.896 Y115.284 E15.54358
G1 F810.8 X118.165 Y115.299 E15.55684
G1 X118.148 Y115.254 E15.55921
G1 X118.098 Y114.989 E15.57248
G1 X117.982 Y114.782 E15.58416
G1 X117.862 Y114.718 E15.59086
G1 F812.2 X117.591 Y114.728 E15.60419
G1 X117.389 Y114.838 E15.61549
G1 X117.289 Y114.942 E15.62258
G1 X117.077 Y115.426 E15.64855
G1 F2700 E10.14855
G0 F6000 X117.333 Y115.2
G0 X118.628 Y115.622
G0 X119.043 Y115.718
G0 X119.476 Y115.91
G0 X120.343 Y116.595
G0 X120.949 Y117.506
G0 X121.193 Y118.188
G0 X121.318 Y119.258
G0 X121.172 Y120.477
G0 X120.845 Y121.248
G0 X120.294 Y122.033
G0 X119.409 Y122.685
G0 X119.027 Y122.837
G0 X118.04 Y123.126
G1 F2700 E15.64855
